X: 86
T: Lupang de yshu
L: 1/8
M: 2/4
K: D
B2B2 | 
B2A2 | 
e dB2 | 
A FD2 | 
F> A B d | 
A F D E | 
F4- | 
F2z2 | 
e dB2 | 
B2B,2 | 
B AF2 | 
F DB,2 | 
B,> D E F | 
D B,A,2 | 
B,4- | 
B,2z2 |]

@@@ Tune index: 8754
